assets/icons/qvision/perm_scan_wifi.svg

<svg xmlns="http://www.w3.org/2000/svg" height="24" viewBox="0 0 24 24" width="24"><path d="M0 0h24v24H0z" fill="none"/><path d="M12 3C6.95 3 3.15 4.85 0 7.23L12 22 24 7.25C20.85 4.87 17.05 3 12 3zm1 13h-2v-6h2v6zm-2-8V6h2v2h-2z"/></svg>

<svg width="24" height="24" viewBox="0 0 24 24" fill="none" xmlns="http://www.w3.org/2000/svg">
<g clip-path="url(#clip0_147_4545)">
<path d="M12 3C6.95 3 3.15 4.85 0 7.23L12 22L24 7.25C20.85 4.87 17.05 3 12 3ZM13 16H11V10H13V16ZM11 8V6H13V8H11Z" fill="#323232"/>
</g>
<defs>
<clipPath id="clip0_147_4545">
<rect width="24" height="24" fill="white"/>
</clipPath>
</defs>
</svg>
